X:431
T: UND SO FINDEN WIR UNS WIEDER
N: F0800
O: Europa, Mitteleuropa, Deutschland
R: Geselligkeits -, Moral - Lied
M: 6/8
L: 1/16
K: F
c4f2 | c4A2B3AG2 | A4F2
c2f2a2 | g2e2c2f2d2=B2 | c4z2
c4f2 | c4A2B3AG2 | A4F2
d4d2 | c3BA2B3AG2 | F4z2

